X:793
T:Petronella
C:Traditional Scottish
M:2/2
R:Reel
L:1/8
S:Colin Hume's website,  colinhume.com  - chords can also be printed below the stave.
Q:1/2=116
K:D
P:A
|: AG | "D"F2 AF "A7"E2 AF | "D"D2D2 D2 FA | "Bm"d2 cd "E7"e2d2 | "A"cdBc "A7"A2 dA |\
"D"F2 AF "A7"E2 AF | "D"D2D2 D2 FA | "G"d2 cd "A7"e2c2 | "D"d4 d2 :|
P:B
|: dA | "D"F2 fd A2 af | "Em"g2 gf edcB | "A7"A2 ec A2 ge | "D"f2 fg "A7"fdAF |\
"D"D2 fd A2 af | "Em"g2 gf edcB | "A7"A2 ec A2ge | "D"d4 d2 :|

